src/actions/32/document-edit-sign.svg

<svg xmlns="http://www.w3.org/2000/svg" viewBox="0 0 32 32">
  <defs
     id="defs3051">
    <style
       type="text/css"
       id="current-color-scheme">
      .ColorScheme-Text {
        color:#2e3440;
      }
      </style>
  </defs>
  <path
     style="fill:currentColor;fill-opacity:1;stroke:none" 
     d="M 6 4 L 6 28 L 13 28 L 13 27 L 7 27 L 7 5 L 18 5 L 18 12 L 25 12 L 25 16 L 26 16 L 26 11 L 19 4 L 18 4 L 6 4 z M 22.398438 16 L 17.287109 21.111328 L 14 24.398438 L 14 28 L 17.601562 28 L 26 19.601562 L 22.398438 16 z M 20.349609 19.490234 L 22.509766 21.650391 L 19.335938 24.824219 L 19.335938 24.150391 L 18.322266 24.173828 L 17.287109 24.173828 L 17.287109 23.136719 L 17.287109 22.552734 L 20.349609 19.490234 z M 16.273438 23.564453 L 16.273438 25.185547 L 18.300781 25.185547 L 18.322266 25.839844 L 17.240234 26.919922 L 15.800781 26.919922 L 15.080078 26.199219 L 15.080078 24.757812 L 16.273438 23.564453 z "
     id="path8" 
     class="ColorScheme-Text"
     />
</svg>

<svg viewBox="0 0 32 32" xmlns="http://www.w3.org/2000/svg">
 <defs>
  <style type="text/css">.ColorScheme-Text {
        color:#2e3440;
      }</style>
 </defs>
 <path class="ColorScheme-Text" d="m6 4v24h7v-1h-6v-22h11v7h7v4h1v-5l-7-7h-1-12zm16.398 12-8.3984 8.3984v3.6016h3.6016l8.3984-8.3984-3.6016-3.6016zm-2.0488 3.4902 2.1602 2.1602-3.1738 3.1738v-0.67383l-1.0137 0.023437h-1.0352v-1.0371-0.58398l3.0625-3.0625zm-4.0762 4.0742v1.6211h2.0273l0.021485 0.6543-1.082 1.0801h-1.4395l-0.7207-0.7207v-1.4414l1.1934-1.1934z" fill="currentColor"/>
</svg>
